X:1
T:大提琴练习曲_Book1_P6_No.20
T:大提琴练习曲_Book1_P12_No.20
L:1/8
Q:1/4=40
M:3/8
K:C
V:1 bass nm="大提琴" snm="Vc."
V:1
 C,,C,,C,, | CB,/C/A, | G,/A,/F,/G,/E, | D,F,/E,/D,/C,/ | D,2 G,, | C,D,/E,/F,/G,/ | %6
 A,/G,/A,/B,/C | B,D/C/B,/A,/ | G,2 G,, | CB,/C/A, | G,/A,/F,/G,/E, | D,F,/E,/D,/C,/ | D,2 G,, | %13
 C,D,/E,/F,/G,/ | A,/G,/A,/B,/C | B,D/C/B,/A,/ | G,2 z | G,,/A,,/_B,,/A,,/B,,/D,/ | G,F,/G,/E, | %19
 A,,/C,/D,/E,/F,/G,/ | A,G,/A,/F, | B,A,/B,/G, | CB,/C/A, | DC/D/B, | A,/B,/G,F,/G,/ | %25
 D,C,/D,/B,, | A,,/B,,/G,,G, | CB,/C/A, | G,/A,/F,/G,/E, | D,F,/E,/D,/C,/ | D,2 G,, | %31
 C,D,/E,/F,/G,/ | A,/G,/A,/B,/C | B,D/C/B,/A,/ | G,2 G, | CB,/C/A, | G,/A,/F,/G,/E, | %37
 D,F,/E,/D,/C,/ | D,2 G,, | C,D,/E,/F,/G,/ | A,/G,/A,/_B,/A, | B,/A,/B,/C/B, | C/B,/C/D/C | %43
 D/C/B,/A,/G,/F,/ | E,/D,/C,/B,,/A,,/G,,/ | E,G,/F,/[G,,E,]/D,/ | [C,,C,]2 z | %47
 G,,/A,,/_B,,/A,,/B,,/D,/ | G,F,/G,/E, | A,,/C,/D,/E,/F,/G,/ | A,G,/A,/F, | B,A,/B,/G, | CB,/C/A, | %53
 DC/D/B, | A,/B,/G,F,/G,/ | D,C,/D,/B,, | A,,/B,,/G,,G, | CB,/C/A, | G,/A,/F,/G,/E, | %59
 D,F,/E,/D,/C,/ | D,2 G,, | C,D,/E,/F,/G,/ | A,/G,/A,/_B,/A, | B,/A,/B,/C/B, | C/B,/C/D/C | %65
 D/C/B,/A,/G,/F,/ | E,/D,/C,/B,,/A,,/G,,/ | E,G,/F,/E,/D,/ | F,A,/G,/F,/E,/ | G,B,/A,/G,/F,/ | %70
 A,C/B,/A,/G,/ | B,D/C/B,/A,/ | G,B,/A,/G,/F,/ | E,/D,/F,/E,/G,/F,/ | A,,/G,,/B,,/A,,/C,/B,,/ | %75
 D,,/C,,/E,,/D,,/F,,/E,,/ | G,,/F,,/A,,/G,,/B,,/A,,/ | C,/B,,/D,/C,/E,/D,/ | F,/E,/G,/F,/A,/G,/ | %79
 B,/A,/C/B,/D/C/ | B,/A,/G,/F,/E,/D,/ | C,/G,,/A,,/F,,/D,,/B,,/ | C,,3 |] %83

